X: 12282
T: Fairy Dance, The
R: reel
M: 4/4
K: Amajor
|He|:{e}([Ac]ecA)|([Ac]ecA)|([Ac]ecA)|GBBB
[A2c2] c[Ae]|(dcBA)|(GEFG)|1 A2 A>A:|
[2 A2 A>e|:([A2(e2]e)c)|([A2(e2]e)c)|([(d2]d)B)
[e2A2] ed|[A2(c2] c)e|(dcBA)|(GEFG)|1 (A2A)>e:|
[2 [D2A2] [D2A2]||

